X: 18
T: Green Sandals
%R: reel, strathspey
B: "Twenty Four Country Dances with Figures for the Year 1810", Button & Whitaker, p.9 #2
F: http://www.vwml.org/browse/browse-collections-dance-tune-books/browse-button1810
Z: 2014 John Chambers <jc:trillian.mit.edu>
M: C
L: 1/8
K: G
% - - - - - - - - - - - - - - - - - - - - - - - - - - - - -
|:\
G<B B2 B<d d2 | cAag fedc |\
B<d d2 g<e e2 | f<a ^c<e d2 z2 :|
|:\
g<d d2 e<AAB | cBAG GFED |\
G<BA<c B<dc<e | d<Bc<A G2z2 :|
% - - - - - - - - - - Dance description - - - - - - - - - -
%%begintext align
%%  Change sides back again lead down the
%% middle up again and Allemande.
%%endtext

%%sep 1 1 500
%%sep 1 1 500
